X:1
T:Title
%%score { ( 1 3 ) | 2 }
L:1/8
M:4/4
K:C
V:1 treble nm="Grand Piano"
V:3 treble 
V:2 bass 
V:1
 z4 z2[Q:1/4=100] C2 | E3 _E =E2 [EG]2 | A3 ^G A2 c2 | G3 [FG] [EG]2 [CE]2 |[M:3/4] [B,D]6 | %5
[M:1/4] [B,D]2 |[M:4/4] E3 F G2 [Ec]2 | c3 B A2 A2 | G3 E[K:bass] [G,CD]2 [F,B,D]2 | %9
[M:3/4] [E,C]6 |[M:1/4][K:treble] [G,EG]2 |[M:4/4] [Ec]3 [Ed] [Fc][FA][EG][CE] | G6 z2 | %13
 [Gc]3 [FB] [Fc][FA][EG][CE] | D6 z2 | E3 F G2 [Ec]2 | [Ge]3 [Gc] c2 A2 | G3 E [CD]2 [B,D]2 | %18
[M:3/4] C6 |] %19
V:2
 z4 z2 [C,E,]2 | [C,G,C]3 [C,^F,C] [C,G,C]2 [C,C]2 | [F,CF]3 [F,B,F] [F,CF]2 [F,A,C]2 | %3
 [E,C]3 [D,B,] [C,C]2 [C,G,]2 |[M:3/4] [G,,G,]6 |[M:1/4] [G,,G,]2 | %6
[M:4/4] [C,G,C]3 [D,G,B,] [E,G,C]2 [C,G,]2 | [F,A,F]3 [F,B,F] [F,CF]2 [^F,C_E]2 | %8
 [G,CE]3 [G,C] G,,2 G,,2 |[M:3/4] C,6 |[M:1/4] C,2 |[M:4/4] [C,G,]3 [C,G,] [F,A,][F,C][C,C][C,G,] | %12
 [C,C]2 [C,C][C,C] [C,C]2 [C,C]2 | [E,C]3 [D,G,] [C,G,][C,C][C,C][C,G,] | %14
 [G,,G,]2 [G,,G,][G,,G,] [G,,G,]2 [G,,G,]2 | [C,G,C]3 [D,G,B,] [E,G,C]2 [C,G,]2 | %16
 [C,C]3 [E,_B,] [F,A,F]2 [F,CF]2 | [G,CE]3 [G,C] [G,,G,]2 [G,,F,]2 |[M:3/4] [C,E,]6 |] %19
V:3
 x8 | x8 | x8 | x8 |[M:3/4] x6 |[M:1/4] x2 |[M:4/4] x8 | x8 | x4[K:bass] x4 |[M:3/4] x6 | %10
[M:1/4][K:treble] x2 |[M:4/4] x8 | E2 EE E2 [EG]2 | x8 | B,2 B,B, B,2 [B,F]2 | x8 | x8 | x8 | %18
[M:3/4] x6 |] %19

